Obsidian/status/22s/dialog-information-symbolic.svg

<svg height="22" width="22" xmlns="http://www.w3.org/2000/svg"><g fill="#bebebe" transform="translate(2.998596 3)"><path d="m7.994 0a6.01 6.01 0 0 0 -5.87 4.777c-.528 2.533.69 5.036 2.874 6.327l.002.898a1 1 0 0 0 1 .998h4a1 1 0 0 0 1-.998l.002-.9c2.183-1.293 3.399-3.797 2.87-6.33a6.01 6.01 0 0 0 -5.879-4.772zm.002 2c1.9 0 3.529 1.322 3.918 3.182a3.99 3.99 0 0 1 -2.312 4.484 1 1 0 0 0 -.6.914l-.002.42h-2.002v-.418a1 1 0 0 0 -.602-.914 3.992 3.992 0 0 1 -2.314-4.484 3.99 3.99 0 0 1 3.914-3.184z"/><path d="m6 15c0 .554.446 1 1 1h2c.554 0 1-.446 1-1v-1h-4z"/><path d="m6.992 5.994a.5.5 0 0 0 -.347.86l1 1a.5.5 0 0 0 .707 0l1-1a.5.5 0 1 0 -.707-.707l-.647.646-.646-.646a.5.5 0 0 0 -.36-.153z" fill-rule="evenodd" opacity=".35"/></g></svg>

<?xml version="1.0" encoding="UTF-8" standalone="no"?>
<svg
   xmlns:dc="http://purl.org/dc/elements/1.1/"
   xmlns:cc="http://creativecommons.org/ns#"
   xmlns:rdf="http://www.w3.org/1999/02/22-rdf-syntax-ns#"
   xmlns:svg="http://www.w3.org/2000/svg"
   xmlns="http://www.w3.org/2000/svg"
   width="22"
   height="22"
   version="1.1"
   id="svg10">
  <metadata
     id="metadata16">
    <rdf:RDF>
      <cc:Work
         rdf:about="">
        <dc:format>image/svg+xml</dc:format>
        <dc:type
           rdf:resource="http://purl.org/dc/dcmitype/StillImage" />
        <dc:title></dc:title>
      </cc:Work>
    </rdf:RDF>
  </metadata>
  <defs
     id="defs14" />
  <g
     transform="translate(2.9985955,3)"
     id="g8"
     style="fill:#bebebe;fill-opacity:1">
    <path
       d="M 7.994,0 A 6.01,6.01 0 0 0 2.124,4.777 C 1.596,7.31 2.814,9.813 4.998,11.104 L 5,12.002 A 1,1 0 0 0 6,13 h 4 a 1,1 0 0 0 1,-0.998 l 0.002,-0.9 c 2.183,-1.293 3.399,-3.797 2.87,-6.33 A 6.01,6.01 0 0 0 7.993,0 Z m 0.002,2 c 1.9,0 3.529,1.322 3.918,3.182 A 3.99,3.99 0 0 1 9.602,9.666 1,1 0 0 0 9.002,10.58 L 9,11 H 6.998 V 10.582 A 1,1 0 0 0 6.396,9.668 3.992,3.992 0 0 1 4.082,5.184 3.99,3.99 0 0 1 7.996,2 Z"
       style="color:#000000;font-weight:400;line-height:normal;font-family:sans-serif;font-variant-ligatures:normal;font-variant-position:normal;font-variant-caps:normal;font-variant-numeric:normal;font-variant-alternates:normal;font-feature-settings:normal;text-indent:0;text-align:start;text-decoration:none;text-decoration-line:none;text-decoration-style:solid;text-decoration-color:#000000;text-transform:none;text-orientation:mixed;white-space:normal;shape-padding:0;overflow:visible;isolation:auto;mix-blend-mode:normal;fill:#bebebe;fill-opacity:1"
       font-weight="400"
       overflow="visible"
       id="path2" />
    <path
       d="m 6,15 c 0,0.554 0.446,1 1,1 h 2 c 0.554,0 1,-0.446 1,-1 V 14 H 6 Z"
       id="path4"
       style="fill:#bebebe;fill-opacity:1" />
    <path
       d="m 6.992,5.994 a 0.5,0.5 0 0 0 -0.347,0.86 l 1,1 a 0.5,0.5 0 0 0 0.707,0 l 1,-1 A 0.5,0.5 0 1 0 8.645,6.147 L 7.998,6.793 7.352,6.147 A 0.5,0.5 0 0 0 6.992,5.994 Z"
       style="color:#000000;font-weight:400;line-height:normal;font-family:sans-serif;font-variant-ligatures:normal;font-variant-position:normal;font-variant-caps:normal;font-variant-numeric:normal;font-variant-alternates:normal;font-feature-settings:normal;text-indent:0;text-align:start;text-decoration:none;text-decoration-line:none;text-decoration-style:solid;text-decoration-color:#000000;text-transform:none;text-orientation:mixed;white-space:normal;shape-padding:0;overflow:visible;opacity:0.35;isolation:auto;mix-blend-mode:normal;fill:#bebebe;fill-opacity:1;fill-rule:evenodd"
       font-weight="400"
       overflow="visible"
       id="path6" />
  </g>
</svg>
